src/frontend_kids/assets/images/logo.svg

<svg width="55" height="42" viewBox="0 0 55 42" fill="none" xmlns="http://www.w3.org/2000/svg">
<path d="M13.1502 20.7025C13.1502 16.1153 9.43333 12.3984 4.84608 12.3984C3.61497 12.3984 2.44659 12.665 1.39583 13.1512C0.478384 15.488 -0.031311 18.0443 -0.031311 20.7104C-0.031311 23.3765 0.470543 25.925 1.39583 28.2696C2.44659 28.7479 3.61497 29.0223 4.84608 29.0223C9.43333 29.0066 13.1502 25.2898 13.1502 20.7025Z" fill="#0B334D"/>
<path d="M34.3064 0.0400391C25.5632 0.0400391 18.0903 5.47417 15.0714 13.1431C16.1221 12.6648 17.2905 12.3903 18.5216 12.3903C22.2071 12.3903 25.328 14.7898 26.4179 18.1068C27.5079 14.7898 30.6288 12.3903 34.3143 12.3903C38.9015 12.3903 42.6184 16.1072 42.6184 20.6944C42.6184 25.2817 38.9015 28.9985 34.3143 28.9985C30.6288 28.9985 27.5079 26.5991 26.4179 23.2821C25.328 26.5991 22.2071 28.9985 18.5216 28.9985C17.2905 28.9985 16.1221 28.7319 15.0714 28.2458C18.0903 35.9304 25.5632 41.3645 34.3064 41.3645C45.7158 41.3645 54.9687 32.1116 54.9687 20.7023C54.9687 9.29296 45.7158 0.0400391 34.3064 0.0400391Z" fill="#0B334D"/>
</svg>

<svg width="55" height="42" fill="none" xmlns="http://www.w3.org/2000/svg"><path d="M13.15 20.703A8.303 8.303 0 0 0 1.396 13.15a20.668 20.668 0 0 0-1.427 7.56c0 2.666.502 5.214 1.427 7.559 1.05.478 2.219.752 3.45.752 4.587-.015 8.304-3.732 8.304-8.32zM34.306.04c-8.743 0-16.216 5.434-19.235 13.103a8.312 8.312 0 0 1 3.45-.753c3.686 0 6.807 2.4 7.897 5.717a8.315 8.315 0 0 1 7.896-5.717 8.303 8.303 0 0 1 8.304 8.304A8.303 8.303 0 0 1 34.314 29a8.315 8.315 0 0 1-7.896-5.717 8.314 8.314 0 0 1-7.896 5.716c-1.231 0-2.4-.266-3.45-.752 3.018 7.684 10.491 13.119 19.234 13.119 11.41 0 20.663-9.253 20.663-20.663C54.969 9.293 45.716.04 34.306.04z" fill="#0B334D"/></svg>
